public/static/img/crypto/ATOM.svg

<svg width="48" height="48" viewBox="0 0 48 48" fill="none" xmlns="http://www.w3.org/2000/svg">
<g clip-path="url(#clip0_1146_12132)">
<path d="M24.0004 0C37.2546 0 48.0004 10.7453 48.0004 24C48.0004 37.2547 37.2546 48 24.0004 48C10.7452 48 0.000366227 37.2542 0.000366227 24C-0.000113773 10.7453 10.7452 0 24.0004 0Z" fill="#3DB39E"/>
<path d="M36.3312 19.5011C35.3534 19.1833 34.2792 18.9093 33.1334 18.6784C33.5064 17.5667 33.8141 16.4905 34.0296 15.4816C34.8134 11.8057 34.416 9.3899 32.88 8.49662C32.4955 8.27198 32.053 8.15918 31.5658 8.15918C30.8438 8.15918 30.0245 8.4155 29.1384 8.89454C28.211 9.46862 27.0197 10.3446 26.221 11.0579C25.4389 11.7822 24.6974 12.5491 24 13.3552C21.181 10.12 18.4305 8.15966 16.4342 8.15966C15.9465 8.15966 15.504 8.27246 15.1195 8.4971C13.585 9.39038 13.1875 11.8067 13.9704 15.4821C14.1854 16.4915 14.4931 17.5672 14.8666 18.6784C13.7203 18.9088 12.6466 19.1833 11.6693 19.5011C8.11727 20.6565 6.23999 22.2102 6.23999 23.9977C6.23999 25.2241 7.12511 26.3411 8.82863 27.2949C9.84815 27.8142 10.8192 28.2256 12.2933 28.6859C13.0978 28.924 13.9603 29.1333 14.867 29.3157C14.4936 30.4273 14.1859 31.503 13.9709 32.5115C13.188 36.1893 13.5854 38.6041 15.121 39.4979C15.5059 39.7211 15.9475 39.8344 16.4347 39.8344C18.4315 39.8344 21.1819 37.875 24.0005 34.6389C26.8195 37.875 29.5694 39.8353 31.5662 39.8353C32.0539 39.8353 32.4955 39.7221 32.8795 39.4989C34.0497 38.8182 34.5566 37.2534 34.3872 34.923C34.3627 34.5088 33.9336 32.0262 33.7368 31.2995C33.5577 30.6321 33.3566 29.9708 33.1339 29.3166C34.2806 29.0862 35.3539 28.8112 36.3317 28.4934C39.8837 27.3385 41.7609 25.7843 41.7609 23.9973C41.7605 22.2102 39.8837 20.6565 36.3312 19.5011ZM26.9237 11.9675C27.8323 11.1808 28.4256 10.7329 29.7869 9.84782C30.4733 9.4883 31.0762 9.30254 31.5662 9.30254C31.8566 9.30254 32.1005 9.36206 32.3145 9.48638C33.3365 10.0816 33.5635 12.2339 32.9222 15.2435C32.7058 16.2587 32.3918 17.3454 32.0083 18.471C30.5043 18.2205 28.9886 18.0465 27.467 17.9497C26.6229 16.6669 25.7142 15.4277 24.7445 14.2369C25.4275 13.4399 26.155 12.6822 26.9237 11.9675ZM28.3118 26.5072C27.8397 27.3306 27.3464 28.1418 26.8325 28.9398C24.9457 29.043 23.0547 29.043 21.168 28.9398C20.6536 28.142 20.1602 27.3308 19.6882 26.5072C19.2165 25.6812 18.7672 24.8427 18.3408 23.9925C18.7536 23.1731 19.2019 22.3374 19.6882 21.4883C20.1777 20.6339 20.6726 19.8241 21.168 19.0557C23.0548 18.9535 24.9457 18.9535 26.8325 19.0557C27.3465 19.8536 27.8398 20.6648 28.3118 21.4883C28.7833 22.3108 29.2326 23.1458 29.6592 23.9925C29.233 24.8428 28.7837 25.6813 28.3118 26.5072ZM30.2808 25.2702C30.7674 26.3055 31.213 27.3596 31.6166 28.4301C30.4963 28.6122 29.3691 28.7501 28.2379 28.8433C28.595 28.2707 28.9483 27.6827 29.2944 27.0779C29.6343 26.4815 29.9632 25.8788 30.2808 25.2702ZM26.0491 30.1182C25.4027 31.0626 24.7193 31.9811 24.0005 32.8715C23.2811 31.9815 22.5977 31.063 21.9518 30.1182C22.6272 30.1437 23.3107 30.1585 23.9995 30.1585C24.6902 30.1585 25.3728 30.1437 26.0491 30.1182ZM19.763 28.8433C18.5678 28.743 17.4384 28.6033 16.3838 28.4291C16.7874 27.359 17.233 26.3052 17.7197 25.2702C18.0373 25.8791 18.3665 26.482 18.707 27.0784C19.0526 27.6817 19.4059 28.2697 19.763 28.8433ZM17.7225 22.7195C17.2359 21.686 16.7896 20.634 16.3848 19.5659C17.5048 19.3833 18.6316 19.2454 19.7626 19.1526C19.3995 19.7345 19.0473 20.3231 18.7061 20.9181C18.3672 21.5125 18.0393 22.113 17.7225 22.7195ZM21.9518 17.8773C22.5979 16.9324 23.2813 16.0135 24.0005 15.123C24.7192 16.0139 25.4026 16.9327 26.0491 17.8773C25.3662 17.8507 24.6829 17.8373 23.9995 17.8369C23.3102 17.8369 22.6272 17.8513 21.9518 17.8773ZM29.2944 20.9171C28.953 20.3222 28.6008 19.7337 28.2379 19.1517C29.4321 19.2515 30.5611 19.3917 31.6157 19.5649C31.2105 20.633 30.7642 21.6849 30.2779 22.7185C29.9613 22.112 29.6334 21.5114 29.2944 20.9171ZM15.0797 15.243C14.4379 12.2329 14.6654 10.0811 15.6873 9.4859C15.9005 9.36158 16.1458 9.30206 16.4352 9.30206C17.9314 9.30206 20.459 11.0003 23.2574 14.2355C22.2886 15.4266 21.3804 16.6658 20.5363 17.9483C19.0146 18.0454 17.4987 18.2196 15.9946 18.4701C15.6106 17.3449 15.2962 16.2587 15.0797 15.243ZM12.528 27.5579C11.1883 27.0779 10.5936 26.8475 9.43295 26.3099C8.10767 25.5784 7.37375 24.7729 7.37375 23.9973C7.37375 22.4243 10.3747 20.7328 15.2486 19.7704C15.7846 21.209 16.3926 22.6197 17.0702 23.9973C16.3924 25.3747 15.7844 26.7855 15.2486 28.2241C14.3315 28.0462 13.4235 27.8239 12.528 27.5579ZM16.4347 38.6925C16.1453 38.6925 15.9005 38.6325 15.6869 38.5086C14.3357 37.7219 14.3822 34.2582 15.9926 29.5235C17.4972 29.7744 19.0136 29.9487 20.5358 30.0457C21.3801 31.328 22.2883 32.567 23.257 33.7581C20.4581 36.9947 17.9304 38.6925 16.4347 38.6925ZM32.6299 31.5697C32.736 32.1001 33.1051 33.7475 33.2486 35.0584C33.3696 36.8517 33.0499 38.08 32.3131 38.5091C32.0995 38.6329 31.8557 38.6929 31.5658 38.6929C30.0706 38.6929 27.5429 36.9952 24.7435 33.759C25.7124 32.568 26.6207 31.329 27.4651 30.0467C28.9874 29.9496 30.5037 29.7753 32.0083 29.5245C32.2393 30.1988 32.4466 30.8809 32.6299 31.5697ZM32.7518 28.2246C32.2154 26.7862 31.6075 25.3755 30.9302 23.9977C31.6073 22.6199 32.2152 21.2092 32.7518 19.7709C37.6258 20.7333 40.6267 22.4243 40.6267 23.9977C40.6272 25.5707 37.6262 27.2617 32.7518 28.2246Z" fill="#FDFEFE"/>
<path d="M20.4 9.12012C19.9545 9.12012 19.5272 9.29712 19.2121 9.61218C18.897 9.92724 18.72 10.3546 18.72 10.8001C18.72 11.2457 18.897 11.673 19.2121 11.9881C19.5272 12.3031 19.9545 12.4801 20.4 12.4801C20.8456 12.4801 21.2729 12.3031 21.588 11.9881C21.903 11.673 22.08 11.2457 22.08 10.8001C22.08 10.3546 21.903 9.92724 21.588 9.61218C21.2729 9.29712 20.8456 9.12012 20.4 9.12012ZM14.64 32.1606C14.4171 32.1568 14.1956 32.1974 13.9884 32.2801C13.7813 32.3628 13.5928 32.4859 13.4337 32.6423C13.2747 32.7986 13.1483 32.985 13.0621 33.1907C12.9759 33.3963 12.9314 33.6171 12.9314 33.8401C12.9314 34.0631 12.9757 34.2839 13.0619 34.4896C13.1481 34.6953 13.2744 34.8817 13.4334 35.0381C13.5924 35.1945 13.7809 35.3177 13.988 35.4004C14.1951 35.4832 14.4166 35.5239 14.6396 35.5201C14.8602 35.5201 15.0786 35.4767 15.2825 35.3923C15.4863 35.3079 15.6715 35.1842 15.8276 35.0282C15.9836 34.8722 16.1074 34.6871 16.1918 34.4832C16.2763 34.2794 16.3198 34.061 16.3198 33.8404C16.3198 33.6197 16.2764 33.4013 16.192 33.1974C16.1076 32.9936 15.9839 32.8084 15.8279 32.6523C15.6719 32.4963 15.4867 32.3725 15.2829 32.2881C15.0791 32.2036 14.8607 32.1602 14.64 32.1601V32.1606ZM37.2005 25.4401C36.2722 25.4401 35.5205 26.1923 35.5205 27.1206C35.5205 28.0489 36.2722 28.8006 37.2005 28.8006C37.6461 28.8006 38.0735 28.6236 38.3886 28.3085C38.7037 27.9934 38.8808 27.566 38.8808 27.1204C38.8808 26.6747 38.7037 26.2474 38.3886 25.9322C38.0735 25.6171 37.6461 25.4401 37.2005 25.4401Z" fill="#E2574C"/>
<path d="M20.8799 9.60059C20.7853 9.60062 20.6917 9.61928 20.6043 9.6555C20.5169 9.69173 20.4375 9.74481 20.3707 9.81171C20.3038 9.87861 20.2508 9.95803 20.2146 10.0454C20.1785 10.1328 20.1599 10.2265 20.1599 10.3211C20.1599 10.4156 20.1786 10.5093 20.2148 10.5967C20.251 10.684 20.3041 10.7634 20.371 10.8303C20.4379 10.8971 20.5173 10.9502 20.6047 10.9863C20.6921 11.0225 20.7858 11.0411 20.8804 11.0411C21.0714 11.041 21.2546 10.9651 21.3896 10.8299C21.5246 10.6948 21.6004 10.5116 21.6004 10.3206C21.6003 10.1296 21.5244 9.9464 21.3893 9.81137C21.2541 9.67634 21.0709 9.60052 20.8799 9.60059ZM15.1199 32.6411C14.9289 32.6411 14.7457 32.7171 14.6107 32.8522C14.4757 32.9873 14.3998 33.1705 14.3999 33.3615C14.4 33.5526 14.4759 33.7357 14.611 33.8708C14.7461 34.0058 14.9294 34.0816 15.1204 34.0815C15.3114 34.0815 15.4946 34.0055 15.6296 33.8704C15.7646 33.7353 15.8404 33.5521 15.8404 33.3611C15.8403 33.17 15.7644 32.9869 15.6293 32.8519C15.4941 32.7168 15.3109 32.641 15.1199 32.6411ZM37.6804 25.9206C37.4926 25.9254 37.3141 26.0034 37.183 26.138C37.0519 26.2725 36.9785 26.453 36.9785 26.6408C36.9785 26.8287 37.0519 27.0091 37.183 27.1437C37.3141 27.2782 37.4926 27.3562 37.6804 27.3611C37.8714 27.3611 38.0546 27.2852 38.1897 27.1501C38.3247 27.015 38.4006 26.8318 38.4006 26.6408C38.4006 26.4498 38.3247 26.2666 38.1897 26.1315C38.0546 25.9965 37.8714 25.9206 37.6804 25.9206Z" fill="#EB9891"/>
<path d="M24.0005 20.6396C24.4418 20.6397 24.8787 20.7266 25.2864 20.8955C25.6941 21.0644 26.0645 21.312 26.3765 21.624C26.6885 21.9361 26.936 22.3065 27.1048 22.7142C27.2736 23.1219 27.3605 23.5589 27.3605 24.0001C27.3605 24.4414 27.2735 24.8783 27.1046 25.286C26.9357 25.6937 26.6882 26.0641 26.3761 26.3761C26.0641 26.6881 25.6936 26.9356 25.2859 27.1044C24.8782 27.2733 24.4413 27.3602 24 27.3601C23.1088 27.3601 22.2541 27.0061 21.624 26.3759C20.9938 25.7458 20.6398 24.8911 20.6398 23.9999C20.6398 23.1087 20.9938 22.254 21.624 21.6238C22.2541 20.9937 23.1088 20.6396 24 20.6396H24.0005Z" fill="#324D5B"/>
<path d="M24.9605 22.0801C25.2151 22.0801 25.4594 22.1814 25.6394 22.3615C25.8194 22.5416 25.9205 22.7859 25.9205 23.0406C25.9204 23.2952 25.8192 23.5394 25.6391 23.7195C25.4589 23.8995 25.2147 24.0006 24.96 24.0006C24.7053 24.0006 24.4611 23.8994 24.281 23.7193C24.1009 23.5392 23.9998 23.295 23.9998 23.0403C23.9998 22.7856 24.1009 22.5414 24.281 22.3613C24.4611 22.1812 24.7053 22.0801 24.96 22.0801H24.9605Z" fill="#6E818B"/>
<path d="M24.4805 26.8795C23.8451 26.8793 23.2227 26.6989 22.6857 26.3592C22.1487 26.0195 21.7189 25.5346 21.4464 24.9605C21.1739 24.3865 21.0698 23.7469 21.146 23.1161C21.2223 22.4853 21.476 21.889 21.8775 21.3965C21.4905 21.7108 21.1786 22.1076 20.9645 22.5579C20.7505 23.0081 20.6396 23.5005 20.64 23.999C20.6403 24.6923 20.8551 25.3686 21.2549 25.935C21.6547 26.5014 22.2199 26.9303 22.873 27.1629C23.5262 27.3954 24.2353 27.4202 24.9031 27.2339C25.5709 27.0476 26.1647 26.6592 26.6031 26.1221C26.0047 26.6129 25.2544 26.8807 24.4805 26.8795Z" fill="#2D4552"/>
<path d="M20.4 9.12016C20.8456 9.12016 21.2729 9.29716 21.5879 9.61222C21.903 9.92728 22.08 10.3546 22.08 10.8002C22.08 11.2457 21.903 11.673 21.5879 11.9881C21.2729 12.3032 20.8456 12.4802 20.4 12.4802C19.9544 12.4802 19.5271 12.3032 19.2121 11.9881C18.897 11.673 18.72 11.2457 18.72 10.8002C18.72 10.3546 18.897 9.92728 19.2121 9.61222C19.5271 9.29716 19.9544 9.12016 20.4 9.12016ZM37.2005 25.4402C37.6462 25.4403 38.0736 25.6175 38.3886 25.9327C38.7037 26.2479 38.8806 26.6754 38.8805 27.1211C38.8804 27.5668 38.7032 27.9942 38.3879 28.3093C38.0727 28.6243 37.6452 28.8012 37.1995 28.8011C36.7538 28.801 36.3264 28.6238 36.0114 28.3086C35.6963 27.9933 35.5194 27.5658 35.5195 27.1202C35.5196 26.6745 35.6968 26.2471 36.0121 25.932C36.3273 25.617 36.7548 25.44 37.2005 25.4402ZM14.64 32.1606C14.863 32.1568 15.0845 32.1975 15.2916 32.2802C15.4987 32.3629 15.6873 32.486 15.8463 32.6423C16.0054 32.7986 16.1317 32.985 16.2179 33.1907C16.3042 33.3964 16.3486 33.6171 16.3486 33.8402C16.3487 34.0632 16.3043 34.2839 16.2181 34.4896C16.1319 34.6953 16.0057 34.8818 15.8467 35.0382C15.6877 35.1945 15.4991 35.3177 15.292 35.4004C15.085 35.4832 14.8635 35.5239 14.6405 35.5202C14.1949 35.5202 13.7676 35.3433 13.4525 35.0283C13.1374 34.7132 12.9603 34.286 12.9602 33.8404C12.9602 33.3948 13.1371 32.9675 13.4521 32.6524C13.7671 32.3373 14.1944 32.1602 14.64 32.1602M20.4 8.16016C18.9442 8.16016 17.76 9.34432 17.76 10.8002C17.76 12.256 18.9442 13.4402 20.4 13.4402C21.8558 13.4402 23.04 12.256 23.04 10.8002C23.04 9.34432 21.8558 8.16016 20.4 8.16016ZM37.2005 24.4802C36.5005 24.481 35.8294 24.7595 35.3345 25.2545C34.8396 25.7496 34.5612 26.4207 34.5605 27.1206C34.5605 28.576 35.7451 29.7606 37.2005 29.7606C38.6558 29.7606 39.8405 28.576 39.8405 27.1206C39.8397 26.4207 39.5613 25.7496 39.0664 25.2545C38.5715 24.7595 37.9005 24.481 37.2005 24.4802ZM14.64 31.2006C13.1842 31.2006 12 32.3853 12 33.8406C12 35.296 13.1842 36.4806 14.64 36.4806C16.0958 36.4806 17.28 35.296 17.28 33.8406C17.28 32.3853 16.0958 31.2006 14.64 31.2006Z" fill="#FDFEFE"/>
<path d="M20.88 12.0005C20.4344 12.0005 20.0071 11.8235 19.692 11.5085C19.377 11.1934 19.2 10.7661 19.2 10.3205C19.2 9.97972 19.3032 9.66292 19.4779 9.39844C19.2451 9.5509 19.054 9.75889 18.9217 10.0037C18.7894 10.2484 18.72 10.5223 18.72 10.8005C18.72 11.0211 18.7634 11.2396 18.8478 11.4434C18.9323 11.6473 19.056 11.8325 19.212 11.9885C19.368 12.1445 19.5532 12.2682 19.7571 12.3526C19.9609 12.4371 20.1793 12.4805 20.4 12.4805C20.6782 12.4806 20.9521 12.4113 21.1969 12.279C21.4417 12.1467 21.6497 11.9554 21.802 11.7226C21.5288 11.9041 21.208 12.0008 20.88 12.0005ZM15.12 35.041C14.6744 35.041 14.2471 34.864 13.932 34.5489C13.617 34.2339 13.44 33.8066 13.44 33.361C13.44 33.0197 13.5432 32.7034 13.7179 32.4384C13.4851 32.5909 13.2939 32.799 13.1616 33.0439C13.0292 33.2887 12.96 33.5627 12.96 33.841C12.96 34.2866 13.137 34.7139 13.452 35.0289C13.7671 35.344 14.1944 35.521 14.64 35.521C14.9182 35.5209 15.1921 35.4516 15.4368 35.3193C15.6816 35.187 15.8896 34.9958 16.042 34.7631C15.7687 34.9444 15.448 35.0411 15.12 35.041ZM37.6804 28.321C37.3773 28.3209 37.0799 28.2387 36.8197 28.0832C36.5595 27.9278 36.3463 27.7048 36.2025 27.4379C36.0588 27.1711 35.9899 26.8703 36.0033 26.5675C36.0166 26.2647 36.1117 25.9711 36.2784 25.718C36.0692 25.8545 35.8931 26.0361 35.763 26.2493C35.6329 26.4625 35.552 26.7021 35.5261 26.9506C35.5003 27.1991 35.5302 27.4502 35.6137 27.6856C35.6972 27.921 35.8322 28.1349 36.0088 28.3116C36.1854 28.4882 36.3992 28.6233 36.6346 28.7069C36.87 28.7905 37.1211 28.8205 37.3696 28.7948C37.6181 28.7691 37.8577 28.6882 38.071 28.5582C38.2843 28.4282 38.4659 28.2522 38.6025 28.0431C38.3291 28.2243 38.0084 28.3209 37.6804 28.321Z" fill="#CB4E44"/>
</g>
<defs>
<clipPath id="clip0_1146_12132">
<rect width="48" height="48" fill="white"/>
</clipPath>
</defs>
</svg>

<svg width="48" height="48" fill="none" xmlns="http://www.w3.org/2000/svg"><g clip-path="url(#a)"><path d="M24 0c13.255 0 24 10.745 24 24S37.255 48 24 48 0 37.254 0 24C0 10.745 10.745 0 24 0Z" fill="#3DB39E"/><path d="M36.331 19.501a28.833 28.833 0 0 0-3.198-.823c.373-1.111.681-2.188.897-3.196.783-3.676.386-6.092-1.15-6.985a2.568 2.568 0 0 0-1.314-.338c-.722 0-1.541.256-2.428.736-.927.574-2.118 1.45-2.917 2.163A28.926 28.926 0 0 0 24 13.355c-2.819-3.235-5.57-5.195-7.566-5.195-.488 0-.93.112-1.315.337-1.534.893-1.931 3.31-1.149 6.985.215 1.01.523 2.085.897 3.196-1.147.23-2.22.505-3.198.823-3.552 1.155-5.429 2.71-5.429 4.497 0 1.226.885 2.343 2.589 3.297 1.02.52 1.99.93 3.464 1.39a29.4 29.4 0 0 0 2.574.63 29.444 29.444 0 0 0-.896 3.196c-.783 3.678-.386 6.093 1.15 6.987.385.223.826.336 1.314.336 1.997 0 4.747-1.959 7.566-5.195 2.819 3.236 5.568 5.196 7.565 5.196.488 0 .93-.113 1.314-.336 1.17-.68 1.677-2.246 1.507-4.576-.024-.414-.453-2.897-.65-3.624-.18-.667-.38-1.328-.603-1.982a28.67 28.67 0 0 0 3.198-.824c3.552-1.154 5.429-2.709 5.429-4.496 0-1.787-1.877-3.34-5.43-4.496Zm-9.407-7.534c.908-.786 1.502-1.234 2.863-2.12.686-.359 1.29-.544 1.78-.544.29 0 .533.06.748.183 1.022.596 1.248 2.748.607 5.757a28.688 28.688 0 0 1-.914 3.228 45.05 45.05 0 0 0-4.541-.521 45.412 45.412 0 0 0-2.723-3.713 27.793 27.793 0 0 1 2.18-2.27Zm1.388 14.54a55.25 55.25 0 0 1-1.48 2.433 51.858 51.858 0 0 1-5.664 0 52.835 52.835 0 0 1-2.827-4.947 53.21 53.21 0 0 1 2.827-4.937 52.365 52.365 0 0 1 5.665 0 53.811 53.811 0 0 1 2.826 4.937 52.38 52.38 0 0 1-1.347 2.514Zm1.969-1.237c.486 1.035.932 2.09 1.336 3.16-1.12.182-2.248.32-3.38.413a51.775 51.775 0 0 0 2.044-3.573Zm-4.232 4.848A43.482 43.482 0 0 1 24 32.871a42.84 42.84 0 0 1-2.048-2.753 53.235 53.235 0 0 0 4.097 0Zm-6.286-1.275c-1.195-.1-2.325-.24-3.38-.414a43.56 43.56 0 0 1 1.337-3.159 50.93 50.93 0 0 0 2.043 3.573Zm-2.04-6.123a44.057 44.057 0 0 1-1.338-3.154c1.12-.183 2.247-.32 3.378-.413a55.3 55.3 0 0 0-1.057 1.765 55.735 55.735 0 0 0-.983 1.802Zm4.229-4.843A43.122 43.122 0 0 1 24 15.123c.72.89 1.403 1.81 2.05 2.754a53.462 53.462 0 0 0-4.098 0Zm7.342 3.04a56.278 56.278 0 0 0-1.056-1.765c1.194.1 2.323.24 3.378.413a44.4 44.4 0 0 1-1.338 3.153 55.053 55.053 0 0 0-.984-1.8ZM15.08 15.243c-.642-3.01-.415-5.162.607-5.757a1.45 1.45 0 0 1 .748-.184c1.496 0 4.024 1.698 6.822 4.934a45.712 45.712 0 0 0-2.72 3.712 45.147 45.147 0 0 0-4.542.522 28.56 28.56 0 0 1-.915-3.227Zm-2.552 12.315c-1.34-.48-1.934-.71-3.095-1.248-1.325-.732-2.06-1.537-2.06-2.313 0-1.573 3.002-3.264 7.876-4.227a45.83 45.83 0 0 0 1.821 4.227 45.696 45.696 0 0 0-1.821 4.227c-.918-.178-1.825-.4-2.721-.666Zm3.907 11.135c-.29 0-.534-.06-.748-.184-1.351-.787-1.305-4.25.306-8.986 1.504.251 3.02.426 4.543.523a45.814 45.814 0 0 0 2.721 3.712c-2.799 3.237-5.327 4.934-6.822 4.934ZM32.63 31.57c.106.53.475 2.178.619 3.488.12 1.794-.2 3.022-.936 3.451a1.45 1.45 0 0 1-.747.184c-1.495 0-4.023-1.698-6.822-4.934a45.775 45.775 0 0 0 2.721-3.712 45.087 45.087 0 0 0 4.543-.523c.231.675.439 1.357.622 2.046Zm.122-3.345a46.07 46.07 0 0 0-1.822-4.227 46.19 46.19 0 0 0 1.822-4.227c4.874.962 7.875 2.653 7.875 4.227 0 1.573-3 3.264-7.875 4.227Z" fill="#FDFEFE"/><path d="M20.4 9.12a1.68 1.68 0 1 0 0 3.36 1.68 1.68 0 0 0 0-3.36Zm-5.76 23.04a1.68 1.68 0 1 0 0 3.36 1.68 1.68 0 0 0 0-3.36Zm22.56-6.72a1.68 1.68 0 1 0 0 3.36 1.68 1.68 0 0 0 0-3.36Z" fill="#E2574C"/><path d="M20.88 9.6a.72.72 0 1 0 0 1.441.72.72 0 0 0 0-1.44Zm-5.76 23.041a.72.72 0 1 0 0 1.44.72.72 0 0 0 0-1.44Zm22.56-6.72a.72.72 0 0 0 0 1.44.72.72 0 0 0 0-1.44Z" fill="#EB9891"/><path d="M24 20.64a3.362 3.362 0 0 1 1.286 6.464 3.358 3.358 0 0 1-3.662-.728A3.36 3.36 0 0 1 24 20.64Z" fill="#324D5B"/><path d="M24.96 22.08a.96.96 0 1 1 .001 1.92.96.96 0 0 1-.001-1.92Z" fill="#6E818B"/><path d="M24.48 26.88a3.36 3.36 0 0 1-2.602-5.483 3.348 3.348 0 0 0-1.238 2.602 3.36 3.36 0 0 0 5.963 2.123 3.339 3.339 0 0 1-2.123.758Z" fill="#2D4552"/><path d="M20.4 9.12a1.68 1.68 0 1 1 0 3.36 1.68 1.68 0 0 1 0-3.36Zm16.8 16.32a1.68 1.68 0 1 1 0 3.36 1.68 1.68 0 0 1 0-3.36Zm-22.56 6.72a1.68 1.68 0 1 1 0 3.36 1.68 1.68 0 0 1 0-3.36m5.76-24a2.643 2.643 0 0 0-2.64 2.64 2.643 2.643 0 0 0 2.64 2.64 2.643 2.643 0 0 0 2.64-2.64 2.643 2.643 0 0 0-2.64-2.64Zm16.8 16.32a2.643 2.643 0 0 0-2.64 2.64 2.643 2.643 0 0 0 2.64 2.64 2.643 2.643 0 0 0 2.64-2.64 2.644 2.644 0 0 0-2.64-2.64ZM14.64 31.2A2.643 2.643 0 0 0 12 33.84a2.643 2.643 0 0 0 2.64 2.64 2.643 2.643 0 0 0 2.64-2.64 2.643 2.643 0 0 0-2.64-2.64Z" fill="#FDFEFE"/><path d="M20.88 12a1.68 1.68 0 0 1-1.402-2.602 1.676 1.676 0 0 0-.266 2.59 1.679 1.679 0 0 0 2.59-.265 1.663 1.663 0 0 1-.922.277Zm-5.76 23.041a1.68 1.68 0 0 1-1.402-2.603 1.676 1.676 0 0 0-.266 2.59 1.68 1.68 0 0 0 2.59-.265 1.667 1.667 0 0 1-.922.278Zm22.56-6.72a1.679 1.679 0 0 1-1.402-2.603 1.678 1.678 0 1 0 2.325 2.325 1.67 1.67 0 0 1-.923.278Z" fill="#CB4E44"/></g><defs><clipPath id="a"><path fill="#fff" d="M0 0h48v48H0z"/></clipPath></defs></svg>
